X: 11
T: Kilnamona
R: barndance
M: 4/4
L: 1/8
K: Dmaj
|: dB |A2 FE DEFA | A2 G2 E2- EF | G2 E2 BEGA | B2 AG FDCD |
ADFA DAFG | A2 G2 E2- EF | G2 E2 BA^GA | D2 D2 D2 :|
|: de |f2- ff fedf | e2- ee edBc | dedB A2 FA | B2 e2 eAde |
fAdf Afaf | eAce Aece | dedB A2 FA | B2 d2 d2 :|


Tune 163	Setting 28499

